dist/icons/svgs/arrow-right-from-bracket-solid.svg

<svg xmlns="http://www.w3.org/2000/svg" width="24" height="24" fill="currentcolor" class="icon-arrow-right-from-bracket-solid" viewBox="0 0 24 24">
  <path d="M21.6094 12.8984L16.6094 17.8984C16.1406 18.4062 15.3203 18.4062 14.8516 17.8984C14.3438 17.4297 14.3438 16.6094 14.8516 16.1406L17.7031 13.25H9.5C8.79688 13.25 8.25 12.7031 8.25 12C8.25 11.3359 8.79688 10.75 9.5 10.75H17.7031L14.8516 7.89844C14.3438 7.42969 14.3438 6.60938 14.8516 6.14062C15.3203 5.63281 16.1406 5.63281 16.6094 6.14062L21.6094 11.1406C22.1172 11.6094 22.1172 12.4297 21.6094 12.8984ZM8.25 5.75H5.75C5.04688 5.75 4.5 6.33594 4.5 7V17C4.5 17.7031 5.04688 18.25 5.75 18.25H8.25C8.91406 18.25 9.5 18.8359 9.5 19.5C9.5 20.2031 8.91406 20.75 8.25 20.75H5.75C3.67969 20.75 2 19.0703 2 17V7C2 4.92969 3.67969 3.25 5.75 3.25H8.25C8.91406 3.25 9.5 3.83594 9.5 4.5C9.5 5.20312 8.91406 5.75 8.25 5.75Z"/>
</svg>

<svg xmlns="http://www.w3.org/2000/svg" width="24" height="24" fill="currentColor" class="icon-arrow-right-from-bracket-solid" viewBox="0 0 24 24">
  <path d="m21.61 12.898-5 5a1.205 1.205 0 0 1-1.758 0 1.205 1.205 0 0 1 0-1.757l2.851-2.891H9.5c-.703 0-1.25-.547-1.25-1.25 0-.664.547-1.25 1.25-1.25h8.203l-2.851-2.852a1.205 1.205 0 0 1 0-1.757 1.205 1.205 0 0 1 1.757 0l5 5a1.203 1.203 0 0 1 0 1.757M8.25 5.75h-2.5c-.703 0-1.25.586-1.25 1.25v10c0 .703.547 1.25 1.25 1.25h2.5c.664 0 1.25.586 1.25 1.25 0 .703-.586 1.25-1.25 1.25h-2.5C3.68 20.75 2 19.07 2 17V7c0-2.07 1.68-3.75 3.75-3.75h2.5c.664 0 1.25.586 1.25 1.25 0 .703-.586 1.25-1.25 1.25"/>
</svg>
